src/static/logos/flexible-gs.svg

<?xml version="1.0" encoding="UTF-8" standalone="no"?>
<svg width="256px" height="256px" viewBox="0 0 256 256" version="1.1" xmlns="http://www.w3.org/2000/svg" xmlns:xlink="http://www.w3.org/1999/xlink" preserveAspectRatio="xMidYMid">
	<g>
		<path d="M34.1333333,0 L221.866667,0 C240.7168,0 256,15.2832 256,34.1333333 L256,221.866667 C256,240.7168 240.7168,256 221.866667,256 L34.1333333,256 C15.2832,256 0,240.7168 0,221.866667 L0,34.1333333 C0,15.2832 15.2832,0 34.1333333,0 L34.1333333,0 Z" fill="#222222"></path>
		<path d="M49.7493333,155.127467 C49.7493333,166.1952 55.3898667,176.413867 65.0112,181.9136 L81.9712,191.778133 L81.9712,153.915733 L49.7493333,135.1552 L49.7493333,155.127467 L49.7493333,155.127467 Z M82.0608,64.2090667 L65.0453333,74.0864 C55.424,79.5861333 49.7450667,89.8048 49.7450667,100.872533 L49.7450667,120.068267 L81.9669333,138.824533 L81.9669333,101.751467 L114.816,82.9994667 L82.0608,64.2090667 L82.0608,64.2090667 Z M95.7781333,161.4208 L95.7781333,199.2832 L112.917333,209.250133 C122.4448,214.6944 133.7088,214.6944 143.236267,209.250133 L160.226133,199.2832 L160.226133,161.9584 L128.4736,180.445867 L95.7781333,161.4208 L95.7781333,161.4208 Z M174.037333,191.778133 L190.997333,181.9136 C200.618667,176.4096 206.2592,166.190933 206.2592,155.127467 L206.2592,135.6928 L174.037333,154.453333 L174.037333,191.778133 L174.037333,191.778133 Z M160.827733,56.7253333 L143.381333,46.7498667 C133.853867,41.3056 122.1504,41.3056 112.622933,46.7498667 L95.2746667,56.6656 L128.055467,75.456 L160.827733,56.7253333 L160.827733,56.7253333 Z M190.941867,74.0864 L173.9264,64.2730667 L141.2864,83.0165333 L174.0288,101.76 L174.0288,139.362133 L206.250667,120.605867 L206.250667,100.872533 C206.254933,89.8048 200.5632,79.5861333 190.941867,74.0864 L190.941867,74.0864 L190.941867,74.0864 Z M95.7781333,109.341867 L95.7781333,146.325333 L128.469333,165.354667 L160.221867,146.862933 L160.221867,109.3376 L128.046933,90.5557333 L95.7781333,109.341867 L95.7781333,109.341867 Z" fill="#FFFFFF"></path>
	</g>
</svg>

<svg width="256" height="256" xmlns="http://www.w3.org/2000/svg" preserveAspectRatio="xMidYMid"><path d="M34.133 0h187.734C240.717 0 256 15.283 256 34.133v187.734c0 18.85-15.283 34.133-34.133 34.133H34.133C15.283 256 0 240.717 0 221.867V34.133C0 15.283 15.283 0 34.133 0z" fill="#222"/><path d="M49.75 155.127c0 11.068 5.64 21.287 15.261 26.787l16.96 9.864v-37.862l-32.222-18.76v19.971zM82.06 64.21l-17.015 9.877c-9.621 5.5-15.3 15.719-15.3 26.787v19.195l32.222 18.757V101.75L114.816 83 82.061 64.21zm13.718 97.212v37.862l17.14 9.967c9.527 5.444 20.79 5.444 30.318 0l16.99-9.967v-37.325l-31.752 18.488-32.696-19.025zm78.26 30.357l16.96-9.864c9.62-5.504 15.261-15.723 15.261-26.787v-19.434l-32.222 18.76v37.325zm-13.21-135.053L143.38 46.75a31.004 31.004 0 00-30.758 0l-17.348 9.916 32.78 18.79 32.773-18.73zm30.114 17.361l-17.016-9.813-32.64 18.744 32.743 18.743v37.602l32.222-18.756v-19.733c.004-11.068-5.688-21.287-15.31-26.787zm-95.164 35.256v36.983l32.691 19.03 31.753-18.492v-37.525l-32.175-18.782-32.269 18.786z" fill="#FFF"/></svg>
